X: 2
T: Cooley's
R: hornpipe
M: 4/4
L: 1/8
K: Gmaj
(3def|gG G2 EGDC|B,G, B,D GB dg|e2 ce d2 Bd|(3cBA BGA2 (3def|gG G2 EGDC|B,G, B,D GB dg|ecAG FAdc|B2 GF G2:||:GA|BGBd edBd|g2 bg egdB|c2 ge dGBd|cBA^G A2 dc|BGDC B,DG=F|E2CE DGBd|gfge dBcA|B2 GFG2:||


Tune 1052	Setting 23926

